X: 31452
T: Paddy Taylor's
R: reel
M: 4/4
K: Amixolydian
{c} BAeA {c} BAeA|{c} BAeA dBGA|Beed efge|dBGA BcdB:|
ABce a3f|gfed ea~a2|ABcd efge|dBGA BcdB|
ABce a3f|gfed ea~a2|~f3d~e3d|BAGA BcdB|

